X: 22631
T: Laington's
R: reel
M: 4/4
K: Amajor
AFEF A3 e|fece fgaf|e2 ce afec|BAFA BdcB|
AFEF A2 ce|fece fgaf|(3efe ce afec|BdcB A2|
AFEF A3 e|fecf fgaf|ec=c^c afec|afec BdcB|
AFEF A=c^ce|fece faaf|(3efe ce afec|BcdB A2||
ceAe ceAc|BE (3EFE EGBd|cAAG Acec|BABc dcBd|
(3cdc Ac (3cdc Ac|B2 GB EBGB|ABce fefa|1 ecc=c ^cdcB:|

